src/styles/images/cancel-arrow.svg

<svg width="36" height="20" viewBox="0 0 36 20" fill="none" xmlns="http://www.w3.org/2000/svg">
<path fill-rule="evenodd" clip-rule="evenodd" d="M35.5506 10C35.5506 9.70536 35.4168 9.42278 35.1787 9.21444C34.9406 9.00609 34.6177 8.88904 34.281 8.88904H4.33662L12.3274 1.89892C12.4454 1.79562 12.539 1.673 12.6029 1.53804C12.6668 1.40308 12.6997 1.25844 12.6997 1.11236C12.6997 0.966282 12.6668 0.821635 12.6029 0.686677C12.539 0.55172 12.4454 0.429094 12.3274 0.325802C12.2093 0.22251 12.0692 0.140575 11.915 0.0846733C11.7607 0.0287721 11.5954 0 11.4285 0C11.2616 0 11.0963 0.0287721 10.942 0.0846733C10.7878 0.140575 10.6477 0.22251 10.5296 0.325802L0.372987 9.21344C0.254756 9.31664 0.160952 9.43924 0.0969484 9.57421C0.0329451 9.70918 0 9.85387 0 10C0 10.1461 0.0329451 10.2908 0.0969484 10.4258C0.160952 10.5608 0.254756 10.6834 0.372987 10.7866L10.5296 19.6742C10.6477 19.7775 10.7878 19.8594 10.942 19.9153C11.0963 19.9712 11.2616 20 11.4285 20C11.5954 20 11.7607 19.9712 11.915 19.9153C12.0692 19.8594 12.2093 19.7775 12.3274 19.6742C12.4454 19.5709 12.539 19.4483 12.6029 19.3133C12.6668 19.1784 12.6997 19.0337 12.6997 18.8876C12.6997 18.7416 12.6668 18.5969 12.6029 18.462C12.539 18.327 12.4454 18.2044 12.3274 18.1011L4.33662 11.111H34.281C34.6177 11.111 34.9406 10.9939 35.1787 10.7856C35.4168 10.5772 35.5506 10.2946 35.5506 10Z" fill="white"/>
</svg>

<svg width="36" height="20" fill="none" xmlns="http://www.w3.org/2000/svg"><path fill-rule="evenodd" clip-rule="evenodd" d="M35.55 10c0-.295-.133-.577-.371-.786a1.367 1.367 0 0 0-.898-.325H4.337l7.99-6.99c.118-.103.212-.226.276-.361a.993.993 0 0 0 0-.851 1.116 1.116 0 0 0-.276-.361 1.297 1.297 0 0 0-.412-.241 1.43 1.43 0 0 0-.973 0 1.297 1.297 0 0 0-.412.24L.373 9.214a1.114 1.114 0 0 0-.276.361.992.992 0 0 0 0 .852c.064.135.158.257.276.36l10.157 8.888c.118.104.258.185.412.241a1.431 1.431 0 0 0 .973 0c.154-.056.294-.137.412-.24.118-.104.212-.227.276-.362a.993.993 0 0 0 0-.851 1.116 1.116 0 0 0-.276-.36l-7.99-6.991H34.28c.337 0 .66-.117.898-.325.238-.209.372-.491.372-.786Z" fill="#fff"/></svg>
